X:16
T:Early Reel, The
R:reel
C:Dan Compton
Z:Transcribed by Dave Marshall
M:C|
K:Bminor
|: B2dB BAde | f2ef dBAF | ABBA B2dB | ABAF E2FA |
B2GB ABde | f2af gfed | ABFB Adcd |1 ABBA B2FA :|2 ABBA B2de
|: f2df e2de | faaf gf (3efg | f~B3 B2 (3efg | f~B3 A2FA | 
B2GB ABde | f2af gfed | ABFB Adcd |1 ABBA B2de :|2 ABBA B2FA||
